Icons/com_amazon_windowshop.svg

<svg viewBox="0 0 48 48" xmlns:xlink="http://www.w3.org/1999/xlink">
 <defs>
  <linearGradient id="0">
   <stop stop-opacity="0"/>
   <stop offset="1"/>
  </linearGradient>
  <linearGradient xlink:href="#0" id="1" gradientUnits="userSpaceOnUse" gradientTransform="translate(4e-7,-48)" y1="47" x2="0" y2="1"/>
  <clipPath id="2">
   <g transform="translate(0,-1004.3622)">
    <rect rx="4" y="1005.36" x="1" height="46" width="46" fill="#1890d0"/>
   </g>
  </clipPath>
  <clipPath id="3">
   <g transform="translate(0,-1004.3622)">
    <rect rx="4" y="1005.36" x="1" height="46" width="46" fill="#1890d0"/>
   </g>
  </clipPath>
 </defs>
 <g>
  <g transform="translate(0,-1004.3622)">
   <path d="m 5,1006.3622 c -2.216,0 -4,1.784 -4,4 l 0,37.25 c 0,2.216 1.784,4 4,4 l 38,0 c 2.216,0 4,-1.784 4,-4 l 0,-37.25 c 0,-2.216 -1.784,-4 -4,-4 l -38,0 z m -4,41.5 0,0.5 c 0,2.216 1.784,4 4,4 l 38,0 c 2.216,0 4,-1.784 4,-4 l 0,-0.5 c 0,2.216 -1.784,4 -4,4 l -38,0 c -2.216,0 -4,-1.784 -4,-4 z" opacity="0.02"/>
   <path d="m 1,1047.6122 0,0.25 c 0,2.216 1.784,4 4,4 l 38,0 c 2.216,0 4,-1.784 4,-4 l 0,-0.25 c 0,2.216 -1.784,4 -4,4 l -38,0 c -2.216,0 -4,-1.784 -4,-4 z" opacity="0.05"/>
   <rect width="46" height="46" x="1" y="1005.61" rx="4" opacity="0.1"/>
  </g>
 </g>
 <g>
  <g transform="translate(0,-1004.3622)">
   <rect rx="4" y="1005.36" x="1" height="46" width="46" fill="#dddddd"/>
  </g>
 </g>
 <g>
  <rect transform="scale(1,-1)" width="46" height="46" x="1" y="-46.998" rx="4" opacity="0.1" fill="url(#1)"/>
 </g>
 <g>
  <g clip-path="url(#2)">
   <g opacity="0.1">
    <g>
     <path d="M 25.890625 22.136719 C 25.890625 23.503906 25.925781 24.640625 25.265625 25.851562 C 24.734375 26.835938 23.890625 27.441406 22.949219 27.441406 C 21.664062 27.441406 20.917969 26.417969 20.917969 24.90625 C 20.917969 21.921875 23.472656 21.378906 25.890625 21.378906 L 25.890625 22.136719 M 29.265625 30.667969 C 29.046875 30.875 28.726562 30.890625 28.476562 30.753906 C 27.367188 29.789062 27.167969 29.339844 26.554688 28.417969 C 24.71875 30.378906 23.421875 30.964844 21.039062 30.964844 C 18.222656 30.964844 16.03125 29.148438 16.03125 25.511719 C 16.03125 22.671875 17.503906 20.734375 19.597656 19.789062 C 21.414062 18.953125 23.953125 18.804688 25.890625 18.574219 L 25.890625 18.121094 C 25.890625 17.289062 25.953125 16.304688 25.488281 15.585938 C 25.078125 14.941406 24.296875 14.675781 23.609375 14.675781 C 22.332031 14.675781 21.195312 15.359375 20.917969 16.777344 C 20.859375 17.09375 20.640625 17.402344 20.335938 17.417969 L 17.089844 17.054688 C 16.816406 16.988281 16.515625 16.757812 16.589844 16.320312 C 17.339844 12.203125 20.894531 10.964844 24.074219 10.964844 C 25.703125 10.964844 27.832031 11.417969 29.117188 12.707031 C 30.746094 14.296875 30.589844 16.417969 30.589844 18.726562 L 30.589844 24.179688 C 30.589844 25.820312 31.238281 26.539062 31.851562 27.425781 C 32.066406 27.742188 32.113281 28.121094 31.84375 28.355469 C 31.160156 28.953125 29.945312 30.058594 29.277344 30.679688 L 29.265625 30.667969 " fill-rule="evenodd"/>
     <path d="M 34.53125 33.667969 C 31.683594 35.816406 27.558594 36.964844 24.003906 36.964844 C 19.023438 36.964844 14.539062 35.078125 11.144531 31.9375 C 10.878906 31.691406 11.117188 31.355469 11.4375 31.546875 C 15.097656 33.730469 19.628906 35.042969 24.304688 35.042969 C 27.457031 35.042969 30.929688 34.375 34.117188 32.984375 C 34.601562 32.777344 35.003906 33.308594 34.53125 33.667969 " fill-rule="evenodd"/>
     <path d="M 35.714844 32.28125 C 35.351562 31.804688 33.308594 32.054688 32.394531 32.167969 C 32.113281 32.203125 32.070312 31.953125 32.324219 31.773438 C 33.949219 30.601562 36.621094 30.9375 36.929688 31.332031 C 37.242188 31.726562 36.851562 34.46875 35.320312 35.777344 C 35.085938 35.980469 34.863281 35.871094 34.96875 35.605469 C 35.308594 34.726562 36.082031 32.757812 35.714844 32.28125 " fill-rule="evenodd"/>
    </g>
   </g>
  </g>
 </g>
 <g>
  <g clip-path="url(#3)">
   <g transform="translate(0,-1)">
    <g>
     <path d="M 25.890625 22.136719 C 25.890625 23.503906 25.925781 24.640625 25.265625 25.851562 C 24.734375 26.835938 23.890625 27.441406 22.949219 27.441406 C 21.664062 27.441406 20.917969 26.417969 20.917969 24.90625 C 20.917969 21.921875 23.472656 21.378906 25.890625 21.378906 L 25.890625 22.136719 M 29.265625 30.667969 C 29.046875 30.875 28.726562 30.890625 28.476562 30.753906 C 27.367188 29.789062 27.167969 29.339844 26.554688 28.417969 C 24.71875 30.378906 23.421875 30.964844 21.039062 30.964844 C 18.222656 30.964844 16.03125 29.148438 16.03125 25.511719 C 16.03125 22.671875 17.503906 20.734375 19.597656 19.789062 C 21.414062 18.953125 23.953125 18.804688 25.890625 18.574219 L 25.890625 18.121094 C 25.890625 17.289062 25.953125 16.304688 25.488281 15.585938 C 25.078125 14.941406 24.296875 14.675781 23.609375 14.675781 C 22.332031 14.675781 21.195312 15.359375 20.917969 16.777344 C 20.859375 17.09375 20.640625 17.402344 20.335938 17.417969 L 17.089844 17.054688 C 16.816406 16.988281 16.515625 16.757812 16.589844 16.320312 C 17.339844 12.203125 20.894531 10.964844 24.074219 10.964844 C 25.703125 10.964844 27.832031 11.417969 29.117188 12.707031 C 30.746094 14.296875 30.589844 16.417969 30.589844 18.726562 L 30.589844 24.179688 C 30.589844 25.820312 31.238281 26.539062 31.851562 27.425781 C 32.066406 27.742188 32.113281 28.121094 31.84375 28.355469 C 31.160156 28.953125 29.945312 30.058594 29.277344 30.679688 L 29.265625 30.667969 " fill="#201f1f" fill-rule="evenodd"/>
     <path d="M 34.53125 33.667969 C 31.683594 35.816406 27.558594 36.964844 24.003906 36.964844 C 19.023438 36.964844 14.539062 35.078125 11.144531 31.9375 C 10.878906 31.691406 11.117188 31.355469 11.4375 31.546875 C 15.097656 33.730469 19.628906 35.042969 24.304688 35.042969 C 27.457031 35.042969 30.929688 34.375 34.117188 32.984375 C 34.601562 32.777344 35.003906 33.308594 34.53125 33.667969 " fill="#ff9900" fill-rule="evenodd"/>
     <path d="M 35.714844 32.28125 C 35.351562 31.804688 33.308594 32.054688 32.394531 32.167969 C 32.113281 32.203125 32.070312 31.953125 32.324219 31.773438 C 33.949219 30.601562 36.621094 30.9375 36.929688 31.332031 C 37.242188 31.726562 36.851562 34.46875 35.320312 35.777344 C 35.085938 35.980469 34.863281 35.871094 34.96875 35.605469 C 35.308594 34.726562 36.082031 32.757812 35.714844 32.28125 " fill="#ff9900" fill-rule="evenodd"/>
    </g>
   </g>
  </g>
 </g>
 <g>
  <g transform="translate(0,-1004.3622)">
   <path d="m 1,1043.3622 0,4 c 0,2.216 1.784,4 4,4 l 38,0 c 2.216,0 4,-1.784 4,-4 l 0,-4 c 0,2.216 -1.784,4 -4,4 l -38,0 c -2.216,0 -4,-1.784 -4,-4 z" opacity="0.1"/>
  </g>
 </g>
</svg>

<svg viewBox="0 0 48 48"><defs><linearGradient id="linearGradient3764" x1="1" x2="47" gradientUnits="userSpaceOnUse" gradientTransform="translate(-48.000001,0.00221467)"><stop stop-color="#d3d3d3" stop-opacity="1"/><stop offset="1" stop-color="#ddd" stop-opacity="1"/></linearGradient><clipPath id="clipPath-535782662"><g transform="translate(0,-1004.3622)"><rect rx="4" y="1005.36" x="1" height="46" width="46" fill="#1890d0"/></g></clipPath><clipPath id="clipPath-549396672"><g transform="translate(0,-1004.3622)"><rect rx="4" y="1005.36" x="1" height="46" width="46" fill="#1890d0"/></g></clipPath></defs><g><path d="m 1 43 l 0 0.25 c 0 2.216 1.784 4 4 4 l 38 0 c 2.216 0 4 -1.784 4 -4 l 0 -0.25 c 0 2.216 -1.784 4 -4 4 l -38 0 c -2.216 0 -4 -1.784 -4 -4 z m 0 0.5 l 0 0.5 c 0 2.216 1.784 4 4 4 l 38 0 c 2.216 0 4 -1.784 4 -4 l 0 -0.5 c 0 2.216 -1.784 4 -4 4 l -38 0 c -2.216 0 -4 -1.784 -4 -4 z" opacity="0.02"/><path d="m 1 43.25 l 0 0.25 c 0 2.216 1.784 4 4 4 l 38 0 c 2.216 0 4 -1.784 4 -4 l 0 -0.25 c 0 2.216 -1.784 4 -4 4 l -38 0 c -2.216 0 -4 -1.784 -4 -4 z" opacity="0.05"/><path d="m 1 43 l 0 0.25 c 0 2.216 1.784 4 4 4 l 38 0 c 2.216 0 4 -1.784 4 -4 l 0 -0.25 c 0 2.216 -1.784 4 -4 4 l -38 0 c -2.216 0 -4 -1.784 -4 -4 z" opacity="0.1"/></g><g><rect width="46" height="46" x="-47" y="1" rx="4" transform="matrix(0,-1,1,0,0,0)" fill="url(#linearGradient3764)" fill-opacity="1"/></g><g><g clip-path="url(#clipPath-535782662)"><g opacity="0.1"><!-- color: #dddddd --><g><path d="m 25.891 22.14 c 0 1.367 0.035 2.504 -0.625 3.715 c -0.531 0.984 -1.375 1.59 -2.316 1.59 c -1.285 0 -2.031 -1.023 -2.031 -2.535 c 0 -2.984 2.555 -3.527 4.973 -3.527 l 0 0.758 m 3.375 8.531 c -0.219 0.207 -0.539 0.223 -0.789 0.086 c -1.109 -0.965 -1.309 -1.414 -1.922 -2.336 c -1.836 1.961 -3.133 2.547 -5.516 2.547 c -2.816 0 -5.01 -1.816 -5.01 -5.453 c 0 -2.84 1.473 -4.777 3.566 -5.723 c 1.816 -0.836 4.355 -0.984 6.293 -1.215 l 0 -0.453 c 0 -0.832 0.063 -1.816 -0.402 -2.535 c -0.41 -0.645 -1.191 -0.91 -1.879 -0.91 c -1.277 0 -2.414 0.684 -2.691 2.102 c -0.059 0.316 -0.277 0.625 -0.582 0.641 l -3.246 -0.363 c -0.273 -0.066 -0.574 -0.297 -0.5 -0.734 c 0.75 -4.117 4.305 -5.355 7.484 -5.355 c 1.629 0 3.758 0.453 5.04 1.742 c 1.629 1.59 1.473 3.711 1.473 6.02 l 0 5.453 c 0 1.641 0.648 2.359 1.262 3.246 c 0.215 0.316 0.262 0.695 -0.008 0.93 c -0.684 0.598 -1.898 1.703 -2.566 2.324 l -0.012 -0.012" fill-rule="evenodd" fill="#000"/><path d="m 34.531 33.668 c -2.848 2.148 -6.973 3.297 -10.527 3.297 c -4.98 0 -9.465 -1.887 -12.859 -5.03 c -0.266 -0.246 -0.027 -0.582 0.293 -0.391 c 3.66 2.184 8.191 3.496 12.867 3.496 c 3.152 0 6.625 -0.668 9.813 -2.059 c 0.484 -0.207 0.887 0.324 0.414 0.684" fill-rule="evenodd" fill="#000"/><path d="m 35.715 32.28 c -0.363 -0.477 -2.406 -0.227 -3.32 -0.113 c -0.281 0.035 -0.324 -0.215 -0.07 -0.395 c 1.625 -1.172 4.297 -0.836 4.605 -0.441 c 0.313 0.395 -0.078 3.137 -1.609 4.445 c -0.234 0.203 -0.457 0.094 -0.352 -0.172 c 0.34 -0.879 1.113 -2.848 0.746 -3.324" fill-rule="evenodd" fill="#000"/></g></g></g></g><g><g clip-path="url(#clipPath-549396672)"><g transform="translate(0,-1)"><!-- color: #dddddd --><g><path d="m 25.891 22.14 c 0 1.367 0.035 2.504 -0.625 3.715 c -0.531 0.984 -1.375 1.59 -2.316 1.59 c -1.285 0 -2.031 -1.023 -2.031 -2.535 c 0 -2.984 2.555 -3.527 4.973 -3.527 l 0 0.758 m 3.375 8.531 c -0.219 0.207 -0.539 0.223 -0.789 0.086 c -1.109 -0.965 -1.309 -1.414 -1.922 -2.336 c -1.836 1.961 -3.133 2.547 -5.516 2.547 c -2.816 0 -5.01 -1.816 -5.01 -5.453 c 0 -2.84 1.473 -4.777 3.566 -5.723 c 1.816 -0.836 4.355 -0.984 6.293 -1.215 l 0 -0.453 c 0 -0.832 0.063 -1.816 -0.402 -2.535 c -0.41 -0.645 -1.191 -0.91 -1.879 -0.91 c -1.277 0 -2.414 0.684 -2.691 2.102 c -0.059 0.316 -0.277 0.625 -0.582 0.641 l -3.246 -0.363 c -0.273 -0.066 -0.574 -0.297 -0.5 -0.734 c 0.75 -4.117 4.305 -5.355 7.484 -5.355 c 1.629 0 3.758 0.453 5.04 1.742 c 1.629 1.59 1.473 3.711 1.473 6.02 l 0 5.453 c 0 1.641 0.648 2.359 1.262 3.246 c 0.215 0.316 0.262 0.695 -0.008 0.93 c -0.684 0.598 -1.898 1.703 -2.566 2.324 l -0.012 -0.012" fill="#201f1f" fill-rule="evenodd"/><path d="m 34.531 33.668 c -2.848 2.148 -6.973 3.297 -10.527 3.297 c -4.98 0 -9.465 -1.887 -12.859 -5.03 c -0.266 -0.246 -0.027 -0.582 0.293 -0.391 c 3.66 2.184 8.191 3.496 12.867 3.496 c 3.152 0 6.625 -0.668 9.813 -2.059 c 0.484 -0.207 0.887 0.324 0.414 0.684" fill="#f90" fill-rule="evenodd"/><path d="m 35.715 32.28 c -0.363 -0.477 -2.406 -0.227 -3.32 -0.113 c -0.281 0.035 -0.324 -0.215 -0.07 -0.395 c 1.625 -1.172 4.297 -0.836 4.605 -0.441 c 0.313 0.395 -0.078 3.137 -1.609 4.445 c -0.234 0.203 -0.457 0.094 -0.352 -0.172 c 0.34 -0.879 1.113 -2.848 0.746 -3.324" fill="#f90" fill-rule="evenodd"/></g></g></g></g><g><g transform="translate(0,-1004.3622)"><path d="m 1 1043.36 0 4 c 0 2.216 1.784 4 4 4 l 38 0 c 2.216 0 4 -1.784 4 -4 l 0 -4 c 0 2.216 -1.784 4 -4 4 l -38 0 c -2.216 0 -4 -1.784 -4 -4 z" opacity="0.1"/></g></g></svg>
